icon/cg/menu-oreos.svg

<svg viewBox="0 0 24 24" fill="none" xmlns="http://www.w3.org/2000/svg" height="1em" width="1em">
  <path d="M7 3C5.34315 3 4 4.34315 4 6H20C20 4.34315 18.6569 3 17 3H7Z" fill="currentColor"/>
  <path d="M7 11C5.34315 11 4 9.65685 4 8H20C20 9.65685 18.6569 11 17 11H7Z" fill="currentColor"/>
  <path d="M7 13C5.34315 13 4 14.3431 4 16H20C20 14.3431 18.6569 13 17 13H7Z" fill="currentColor"/>
  <path d="M7 21C5.34315 21 4 19.6569 4 18H20C20 19.6569 18.6569 21 17 21H7Z" fill="currentColor"/>
</svg>

<svg width="24" height="24" fill="none" xmlns="http://www.w3.org/2000/svg"><path d="M7 3a3 3 0 0 0-3 3h16a3 3 0 0 0-3-3H7ZM7 11a3 3 0 0 1-3-3h16a3 3 0 0 1-3 3H7ZM7 13a3 3 0 0 0-3 3h16a3 3 0 0 0-3-3H7ZM7 21a3 3 0 0 1-3-3h16a3 3 0 0 1-3 3H7Z" fill="currentColor"/></svg>
